!!!COM: Music21
!!!OTL: polka_Eileen-Ni-Riordains
!!!OMV: polka_Eileen-Ni-Riordains
**kern
*clefG2
*k[]
*M2/4
=1
16ggLL
16ee
16.ee
32ffJJk
=
16ggLL
16ee
16.ee
32ffJJk
4ryy
=
16ggLL
16ee
16dd
16eeJJ
4ryy
=
16ccLL
16a
32bL
32aJ
16gJJ
4ryy
=
16ggLL
16ee
16.ee
32ffJJk
4ryy
=
16ggLL
16ee
16ee
16ddJJ
4ryy
=
16ccLL
16a
32aL
32bJ
16gJJ
4ryy
!!linebreak:original
=
8aL
8aJ
4ryy
=||
*M2/4
16ggLL
16ee
16.ee
32ffJJk
=
16ggLL
16ee
16.ee
32ffJJk
4ryy
=
16ggLL
16ee
16dd
16eeJJ
4ryy
=
16ccLL
16a
32bL
32aJ
16gJJ
4ryy
=
16ggLL
16ee
16.ee
32ffJJk
4ryy
=
16ggLL
16ee
16ee
16ddJJ
4ryy
!!linebreak:original
=
16ccLL
16a
32aL
32bJ
16gJJ
4ryy
=
8aL
16aL
16bJJ
4ryy
=||
16.ccLL
32ddK
16cc
16eeJJ
4ryy
=
16ddLL
16cc
16.b
32ddJJk
4ryy
=
16ccLL
16a
32bL
32aJ
16gJJ
4ryy
=
16aLL
16b
16cc
16ddJJ
4ryy
=
16.ccLL
32ddK
16cc
16eeJJ
4ryy
!!linebreak:original
=
16ddLL
16cc
16.b
32ddJJk
4ryy
=
16ccLL
16a
32bL
32aJ
16gJJ
4ryy
=
8aL
16aL
16bJJ
4ryy
=||
16.ccLL
32ddK
16cc
16eeJJ
4ryy
=
16ddLL
16cc
16.b
32ddJJk
4ryy
=
16ccLL
16a
32bL
32aJ
16gJJ
4ryy
=
16aLL
16b
16cc
16ddJJ
4ryy
!!linebreak:original
=
16.ccLL
32ddK
16cc
16eeJJ
4ryy
=
16ddLL
16cc
16.b
32ddJJk
4ryy
=
16ccLL
16a
32bL
32aJ
16gJJ
4ryy
=
8aL
8aJ
4ryy
=||
*-
